assets/images/svg/good.svg

<svg width="87" height="87" viewBox="0 0 87 87" fill="none" xmlns="http://www.w3.org/2000/svg">
<path d="M86.555 43.277C86.555 67.18 67.18 86.555 43.277 86.555C19.375 86.555 0 67.179 0 43.277C0 19.375 19.375 0 43.277 0C67.18 0 86.555 19.375 86.555 43.277Z" fill="#FFCE00"/>
<path d="M71.8872 37.6983C72.3322 37.9753 72.9242 37.6603 72.9242 37.1333C72.9242 37.1283 72.9242 37.1253 72.9242 37.1203C72.9242 33.9633 70.3652 31.4023 67.2082 31.4023C64.0502 31.4023 61.4922 33.9633 61.4922 37.1203C61.4922 37.1243 61.4922 37.1283 61.4922 37.1333C61.4922 37.6603 62.0842 37.9753 62.5332 37.6983C63.8922 36.8583 65.4932 36.3733 67.2092 36.3733C68.9242 36.3733 70.5252 36.8583 71.8872 37.6983Z" fill="#562912"/>
<path d="M24.022 37.6983C24.469 37.9753 25.06 37.6603 25.063 37.1333C25.063 37.1283 25.063 37.1253 25.063 37.1203C25.063 33.9633 22.502 31.4023 19.343 31.4023C16.186 31.4023 13.627 33.9633 13.627 37.1203C13.627 37.1243 13.627 37.1283 13.627 37.1333C13.628 37.6603 14.219 37.9753 14.668 37.6983C16.026 36.8583 17.627 36.3733 19.343 36.3733C21.061 36.3733 22.662 36.8583 24.022 37.6983Z" fill="#562912"/>
<path d="M21.1476 49.8337C19.7656 50.3017 18.9776 51.8077 19.5146 53.1667C22.7396 61.3227 32.1856 68.1947 43.2776 68.1947C54.3656 68.1947 63.8156 61.3227 67.0396 53.1667C67.5746 51.8077 66.7886 50.3027 65.4066 49.8337C52.0386 45.3107 34.5146 45.3107 21.1476 49.8337Z" fill="#562912"/>
<path d="M31.375 65.4033C34.917 67.1493 38.971 68.1943 43.278 68.1943C47.584 68.1943 51.635 67.1483 55.181 65.4033C51.9 62.9323 47.775 61.4463 43.278 61.4463C38.781 61.4463 34.653 62.9323 31.375 65.4033Z" fill="#CC342F"/>
</svg>

<svg xmlns="http://www.w3.org/2000/svg" width="87" height="87" fill="none" viewBox="0 0 87 87"><path fill="#ffce00" d="M86.555 43.277c0 23.903-19.375 43.278-43.278 43.278S0 67.179 0 43.277 19.375 0 43.277 0s43.278 19.375 43.278 43.277"/><path fill="#562912" d="M71.887 37.698c.445.277 1.037-.038 1.037-.565v-.013a5.717 5.717 0 1 0-11.432 0v.013c0 .527.592.842 1.041.565a8.86 8.86 0 0 1 4.676-1.325 8.9 8.9 0 0 1 4.678 1.325M24.022 37.698c.447.277 1.038-.038 1.041-.565v-.013a5.718 5.718 0 1 0-11.436 0v.013c.001.527.592.842 1.041.565a8.86 8.86 0 0 1 4.675-1.325 8.87 8.87 0 0 1 4.679 1.325M21.148 49.834c-1.382.468-2.17 1.974-1.633 3.333 3.225 8.156 12.67 15.028 23.763 15.028 11.088 0 20.538-6.872 23.762-15.028.535-1.36-.251-2.864-1.633-3.333-13.368-4.523-30.892-4.523-44.26 0"/><path fill="#cc342f" d="M31.375 65.403a26.9 26.9 0 0 0 11.903 2.791c4.306 0 8.357-1.046 11.903-2.79a19.73 19.73 0 0 0-11.903-3.958c-4.497 0-8.625 1.486-11.903 3.957"/></svg>
